

d1
  $ limit
  $ (|* cps (segment 0.5 $ range 0.1 3 $ shiftBy 3 $ rand))
  $ (|+ note (shiftBy 383 $ choose [-10,-9..0]))
  $ stack [
    midichan (segment 1 $ shiftBy 10 $ choose [2,3,4,5,6,7,8,9,10,11]) # note "c3"
    , slow "<4 5>" $ midichan 0 # note "c3"
    , (0.5 ~>) $ slow "<3 4>" $ midichan 1 # note "c3"
  ] # s "rytm" # cps 1

  hush